static/img/icons/ms_ar.svg

<svg width="40" height="40" viewBox="0 0 40 40" fill="none" xmlns="http://www.w3.org/2000/svg">
<path d="M7.99854 18L4.99854 18L4.99854 21" stroke="black" stroke-width="2"/>
<path d="M32 18L35 18L35 21" stroke="black" stroke-width="2"/>
<path d="M7.99854 35L4.99854 35L4.99854 32" stroke="black" stroke-width="2"/>
<path d="M32 35L35 35L35 32" stroke="black" stroke-width="2"/>
<path d="M29.9707 24.9688L29.9707 29.9688" stroke="black" stroke-width="2" stroke-miterlimit="10" stroke-linecap="round"/>
<path d="M18.0493 26.6698L18.0493 29.9687" stroke="black" stroke-width="2" stroke-miterlimit="10" stroke-linecap="round"/>
<path d="M13.9458 24.9688L13.9458 29.9171" stroke="black" stroke-width="2" stroke-miterlimit="10" stroke-linecap="round"/>
<path d="M10.0293 24.9688L10.0293 29.9688" stroke="black" stroke-width="2" stroke-miterlimit="10" stroke-linecap="round"/>
<path d="M22.0239 26.6698V29.9687" stroke="black" stroke-width="2" stroke-miterlimit="10" stroke-linecap="round"/>
<path d="M25.9922 24.9688V29.9171" stroke="black" stroke-width="2" stroke-miterlimit="10" stroke-linecap="round"/>
<path d="M20 14.0432L14 14.0432" stroke="black" stroke-width="2" stroke-miterlimit="10" stroke-linecap="square"/>
<path d="M25.9458 10.0243L13.9458 10.0243" stroke="black" stroke-width="2" stroke-miterlimit="10" stroke-linecap="square"/>
<path d="M30 5.02905H10V21.0291H17.9875L19.976 23.0573L22.0111 21.0291H30V5.02905Z" stroke="black" stroke-width="2" stroke-linejoin="round"/>
</svg>

<svg fill="none" height="40" viewBox="0 0 40 40" width="40" xmlns="http://www.w3.org/2000/svg"><g stroke="#0a3390" stroke-width="2"><path d="m7.99805 18h-3v3"/><path d="m32 18h3v3"/><path d="m7.99805 35h-3v-3"/><path d="m32 35h3v-3"/><g stroke-miterlimit="10"><path d="m29.9707 24.9688v5" stroke-linecap="round"/><path d="m18.0488 26.6697v3.2989" stroke-linecap="round"/><path d="m13.9453 24.9688v4.9483" stroke-linecap="round"/><path d="m10.0293 24.9688v5" stroke-linecap="round"/><path d="m22.0234 26.6697v3.2989" stroke-linecap="round"/><path d="m25.9922 24.9688v4.9483" stroke-linecap="round"/><path d="m20 14.0432h-6" stroke-linecap="square"/><path d="m25.9453 10.0242h-12" stroke-linecap="square"/></g><path d="m30 5.02905h-20v16.00005h7.9875l1.9885 2.0282 2.0351-2.0282h7.9889z" stroke-linejoin="round"/></g></svg>
